!!!COM: Beethoven, Ludwig van
!!!CDT: 1770///-1827///
!!!OTL: Piano Sonata no. 15 in D major
!!!OTP: pastoral
!!!OPS: 28
!!!OMV: 4
!!!OMD: Rondo: Allegro non troppo
**kern	**kern	**dynam
*staff2	*staff1	*staff1/2
*Ipiano	*Ipiano	*Ipiano
*clefF4	*clefG2	*clefG2
*k[f#c#]	*k[f#c#]	*k[f#c#]
*D:	*D:	*D:
*M6/8	*M6/8	*M6/8
*MM124	*MM124	*MM124
(8AA/	8r	.
=1	=1	=1
4DD/	2.r	.
8AA/	.	.
4DD/	.	.
8BB/	.	.
=2	=2	=2
4DD/	4r	.
8C#/	8r	.
4DD/	4r	.
8D/)	[8aa/	p
=3	=3	=3
*	*^	*
(4DD/	(8aa/L]	4.a\	.
.	8gg/	.	.
8FF#/	8ff#/J	.	.
4DD/	8ee/L	4.b\	.
.	8ff#/	.	.
8GG/	8dd/J)	.	.
=4	=4	=4	=4
4DD/	8b/L	4g\	.
.	8ee/	.	.
8AA/	8cc#'/J	8g\	.
4DD/	8dd'/	8f#\	.
.	8r	8r	.
8AA/)	8r	8r	.
*	*v	*v	*
=5	=5	=5
(4DD/	2.r	.
8AA/	.	.
4DD/	.	.
8BB/	.	.
=6	=6	=6
4DD/	4r	.
8C#/	8r	.
4DD/	4r	.
8D/)	[8aa/	.
=7	=7	=7
*	*^	*
(4DD/	(8aa/L]	4.a\	.
.	8gg/	.	.
8FF#/	8ff#/J	.	.
4DD/	8ee/L	4.b\	.
.	8ff#/	.	.
8GG/	8dd/J)	.	.
=8	=8	=8	=8
4DD/	8b/L	4g\	.
.	8ee/	.	.
8AA/	8cc#'/J	8g\	.
4DD/	8dd'/	8f#\	.
.	8r	8r	.
8D/	[8dd/	8f#\	.
=9	=9	=9	=9
4DD/	4dd/]	[4.g\	<
8E\	8cc#/	.	>
4DD/	8aa'/	8g\]	.
.	8r	8r	.
8AA/)	8cc#/	8g\	.
=10	=10	=10	=10
(4DD/	(4ee/	[4.f#\	<
8D\	8dd/	.	>
4DD/	8aa'/)	8f#\]	.
.	8r	8r	.
8AA/	[8dd/	8f#\	.
=11	=11	=11	=11
4DD/	4dd/]	[4.g\	<
8E\	8cc#/	.	>
4DD/	8aa'/	8g\]	.
.	8r	8r	.
8AA/)	8cc#/	8g\	.
=12	=12	=12	=12
(4DD/	4dd/	4f#\	.
8D\	8r	8r	.
4DD/	4r	4r	.
8AA/	[8dd/	8f#\	.
=13	=13	=13	=13
4DD/	8.dd/L]	[4.g\	<
.	16cc#/L	.	.
8E\	16b#/	.	>
.	16cc#/JJ	.	.
4DD/	8aa'/	8g\]	.
.	8r	8r	.
8AA/	8cc#/	8g\	.
=14	=14	=14	=14
4DD/	8.ee/L	[4.f#\	<
.	16dd/L	.	.
8D\	16cc#/	.	>
.	16dd/JJ	.	.
4DD/	8aa'/	8f#\]	.
.	8r	8r	.
8AA/)	[8dd/	8f#\	.
=15	=15	=15	=15
(4DD/	(8.dd/L]	[4.g\	<
.	16cc#/L	.	.
8E\	16b#/	.	>
.	16cc#/JJ	.	.
4DD/	8aa'/)	8g\]	.
.	8r	8r	.
8AA/	8cc#/	8g\	.
=16	=16	=16	=16
4DD/	4dd/	4f#\	.
8D/	8r	8r	.
4AA/	4r	4r	.
8FF#/)	16d/LL	8r	.
.	16A/JJ	.	.
*	*v	*v	*
=17	=17	=17
(16DD\LL	8r	.
16FF#\	.	.
16AA\	(16F#/LL	.
16D\JJ)	16A/	.
8r	16d/	.
.	16f#/JJ)	.
(16C#\LL	8r	.
16E\	.	.
16A\	(16e/LL	.
16c#\JJ)	16a/	.
8r	16cc#/	.
.	16ee/JJ)	.
=18	=18	=18
(16BB\LL	8r	.
16D\	.	.
16F#\	(16d/LL	.
16B\JJ)	16f#/	.
8r	16b/	.
.	16dd/JJ)	.
16A\LL	8r	.
16c#\	.	.
16f#\	(16cc#\LL	.
16a\JJ	16ff#\	.
8r	16aa\	.
.	16ccc#\JJ)	.
=19	=19	=19
(16GG\LL	8r	.
16BB\	.	.
16D\	(16B/LL	.
16G\JJ)	16d/	.
8r	16g/	.
.	16b/JJ)	.
(16F#\LL	8r	.
16A\	.	.
16e\	(16a\LL	.
16f#\JJ)	16dd\	.
8r	16ff#\	.
.	16aa\JJ)	.
=20	=20	=20
8E'\ 8e'\L	16cc#'\ 16gg'\LL	.
.	16a\	.
8E'\ 8e'\	16cc#'\ 16gg'\	.
.	16a\	.
8D'\ 8d'\J	16dd'\ 16ff#'\	.
.	16a\JJ	.
4AA'\ 4A'\	16cc#\ (16ee\LL	.
.	16dd\	.
.	16cc#\	.
.	16b\	.
8r	16a\	.
.	16g\JJ)	p
=21	=21	=21
(16DD/LL	8r	.
16FF#/	.	.
16AA/	(16F#/LL	.
16D/JJ)	16A/	.
8r	16d/	.
.	16f#/JJ)	.
(16C#\LL	8r	.
16E\	.	.
16A\	(16e/LL	<
16c#\JJ)	16a/	.
8r	16cc#/	.
.	16ee/JJ)	.
=22	=22	=22
(16BB\LL	8r	.
16D\	.	.
16F#\	(16d/LL	.
16B\JJ)	16f#/	.
8r	16b/	.
.	16dd/JJ)	.
(16A\LL	8r	.
16c#\	.	.
16f#\	(16cc#\LL	.
16a\JJ)	16ff#\	.
8r	16aa\	.
.	16ccc#\JJ)	.
=23	=23	=23
(16GG#\LL	8r	.
16BB\	.	.
16E\	(16B/LL	.
16G#\JJ)	16e/	.
8r	16g#/	.
.	16b/JJ)	.
(16F#\LL	8r	.
16A\	.	.
16d#\	(16a\LL	.
16f#\JJ)	16dd#\	.
8r	16ff#\	.
.	16aa\JJ)	.
=24	=24	=24
(16EE/LL	8r	.
16GG#/	.	.
16BB/	(16G#/LL	.
16E/JJ)	16B/	.
8r	16e/	.
.	16g#/JJ)	.
(16A\LL	8r	.
16c#\	.	.
16e\	(16cc#\LL	.
16a\JJ)	16ee\	.
8r	16aa\	.
.	16ccc#\JJ)	.
=25	=25	=25
(16GG#\LL	8r	.
16BB\	.	.
16E\	(16B/LL	.
16G#\JJ)	16e/	.
8r	16g#/	.
.	16b/JJ)	.
(16F#\LL	8r	.
16A\	.	.
16d#\	(16a\LL	.
16f#\JJ)	16dd#\	.
8r	16ff#\	.
.	16aa\JJ)	f
=26	=26	=26
(16EE/LL	8r	.
16GG#/	.	.
16BB/	(16g#\LL	.
16E/JJ)	16b\	.
8r	16ee\	.
.	16gg#\JJ)	.
(16EE/LL	8r	.
16GG#/	.	.
16BB/	(16e/LL	.
16E/JJ)	16g#/	.
8r	16b/)	.
.	16ee/JJ	.
=27	=27	=27
(16EE/LL	8r	.
16GG#/	.	.
16BB/	(16B/LL	.
16E/JJ)	16e/	.
8r	16g#/	.
.	16b/JJ)	.
(16EE/LL	8r	.
16GG#/	.	.
16BB/	(16G#/LL	.
16E/JJ)	16B/	.
8r	16e/	.
.	16g#/JJ)	.
=28	=28	=28
[4.EE/	4r	.
.	8r	.
4EE/]	4r	.
8r	(8ccc#/	p
=29	=29	=29
*	*^	*
2.r	4aa/	4r	.
.	8eee/	8r	.
.	4ccc#/)	4r	.
.	(8aa/	8cc#\	p
=30	=30	=30	=30
4r	4ee/	4a\	.
8r	8ccc#/	8ee\	.
4r	4aa/	4cc#\	.
8c#\	[8ee/)	8a\	p
=31	=31	=31	=31
(4A\	4.ee/_	(4cc#\	.
8e\	.	8a\	.
4c#\)	4ee/]	4e\)	.
(8A\	[8ee/	8a\ 8cc#\	.
=32	=32	=32	=32
4e\	4.ee/_	4g#\ 4b\	.
8E\	.	8b\ 8dd\	.
4A'\)	8ee'/]	8a\ 8cc#\	.
.	16r	8r	.
.	16ccc#/LL	.	.
8r	16bb#/	8r	.
.	16ccc#/JJ	.	.
=33	=33	=33	=33
2.r	8aa'/	4r	.
.	16r	.	.
.	(16eee/LL	.	.
.	16ddd#/	8r	.
.	16eee/JJ)	.	.
.	8ccc#'/	8r	.
.	8r	16r	.
.	.	16cc#\LL	.
.	8aa'/	16b#\	.
.	.	16cc#\JJ	.
=34	=34	=34	=34
4r	8ee'/	8a'\	.
.	8r	16r	.
.	.	(16ee\LL	.
8r	8ccc#'/	16dd#\	.
.	.	16ee\JJ)	.
8r	8aa'/	8cc#'\	.
16r	8r	8r	.
(16c#\LL	.	.	.
16B#\	8ee'/	8a\	.
16c#\JJ)	.	.	.
=35	=35	=35	=35
8A'\	[4.ee/	(4cc#\	.
16r	.	.	.
16e\LL	.	.	.
16d#\	.	8a\	.
16e\JJ	.	.	.
8c#'\	4ee/]	4e\)	.
8r	.	.	.
8A\	[8ee/	(8a\ 8cc#\	.
=36	=36	=36	=36
4e\	4.ee/_	4g#\ 4b\	.
8E\	.	8b\ 8dd\	.
4A\	4ee/]	4a\) 4cc#\	.
(8C#/	8aa/	8cc#\ 8ee\	.
=37	=37	=37	=37
4E\	4gg#/	4b\ 4ee\	.
8EE/)	8bb/	8dd\ 8ee\	.
4AA'/	4aa'/	4cc#\ 4ee\	.
(8c#\	[8ee/	8a\ 8cc#\	.
=38	=38	=38	=38
4e\	4.ee/_	4g#\ 4b\	.
8E\	.	8b\ 8dd\	.
4A'\)	4ee'/]	4a\ 4cc#\	.
(8C#/	8aa/	8cc#\ 8ee\	.
=39	=39	=39	=39
4E\	4gg#/	4b\ 4ee\	.
8EE/	8bb/	8dd\ 8ee\	.
4AA'/)	4aa'/	4cc#\ 4ee\	.
(8C#/	8aa/	8cc#\ 8ee\	.
=40	=40	=40	=40
4E\	4gg#/	4b\ 4ee\	.
8EE/	8bb/	8dd\ 8ee\	.
4AA'/)	4aa'/	4cc#\ 4ee\	.
8FF#/ 8F#/	8aa#/	8cc#\ 8ee\	.
=41	=41	=41	=41
2.DD/ 2.D/	2.bb/	2.dd\ 2.ff#\	f
=42	=42	=42	=42
2.EE/ 2.E/	2.gg#/	2.dd\	.
*	*v	*v	*
=43	=43	=43
*^	*	*
[2.AA/	4.AAA\ 4.AA\	16a\LL	.
.	.	16cc#\	.
.	.	16ee\	.
.	.	16aa\	.
.	.	16a\	.
.	.	16aa\JJ	.
.	8GG#\L	16g#\LL	.
.	.	16gg#\	.
.	8FF#\	16f#\	.
.	.	16ff#\	.
.	8EE\J	16e\	.
.	.	16ee\JJ	.
=44	=44	=44	=44
2.AA/]	8FF#\L	16f#/LL	.
.	.	16ff#/	.
.	8EE\	16e/	.
.	.	16ee/	.
.	8DD\J	16d/	.
.	.	16dd/JJ	.
.	8CC#\L	16c#/LL	.
.	.	16cc#/	.
.	8DD\	16d/	.
.	.	16dd/	.
.	8EE\J	16e/	.
.	.	16ee/JJ	.
=45	=45	=45	=45
[2.AA/	4.AAA\ 4.AA\	16a\LL	.
.	.	16cc#\	.
.	.	16ee\	.
.	.	16aa\	.
.	.	16a\	.
.	.	16aa\JJ	.
.	8GG#\L	16g#\LL	.
.	.	16gg#\	.
.	8FF#\	16f#\	.
.	.	16ff#\	.
.	8EE\J	16e\	.
.	.	16ee\JJ	.
=46	=46	=46	=46
2.AA/]	8FF#\L	16f#/LL	.
.	.	16ff#/	.
.	8EE\	16e/	.
.	.	16ee/	.
.	8DD\J	16d/	.
.	.	16dd/JJ	.
.	8CC#\L	16c#/LL	.
.	.	16cc#/	.
.	8DD\	16d/	.
.	.	16dd/	.
.	8EE\J	16e/	.
.	.	16ee/JJ	.
=47	=47	=47	=47
[2.AA/	4.AAA\ 4.AA\	16a\LL	.
.	.	16cc#\	.
.	.	16ee\	.
.	.	16aa\	.
.	.	16a\	.
.	.	16aa\JJ	.
.	8GGn\L	16gn\LL	.
.	.	16ggn\	.
.	8FF#\	16f#\	.
.	.	16ff#\	.
.	8EE\J	16e\	.
.	.	16ee\JJ	.
=48	=48	=48	=48
4.AA/_	8DD\L	16d/LL	.
.	.	16dd/	.
.	8CC#\	16c#/	.
.	.	16cc#/	.
.	8BBB\J	16B/	.
.	.	16b/JJ	.
8AAA/ 8AA/L]	4.r	16A/LL	.
.	.	16a/	.
8GGG/ 8GG/	.	16G/	.
.	.	16g/	.
8FFF#/ 8FF#/J	.	16F#/	.
.	.	16f#/JJ	.
*v	*v	*	*
=49	=49	=49
4GGG/ 4GG/	4G/ 4g/	f
8r	8r	.
4r	4r	.
8r	8r	.
=50	=50	=50
4GGG#/ 4GG#/	4G#/ 4g#/	f
8r	8r	.
4r	4r	.
8r	8r	.
=51	=51	=51
4r	2.r	p
8r	.	.
4r	.	.
(8AA/	.	.
=52	=52	=52
4DD/	2.r	.
8AA/	.	.
4DD/	.	.
8BB/	.	.
=53	=53	=53
4DD/	4r	.
8C#/	8r	.
4DD/	4r	.
8D/)	[8aa/	p
=54	=54	=54
*	*^	*
(4DD/	(8aa/L]	4.a\	.
.	8gg/	.	.
8FF#/	8ff#/J	.	.
4DD/	8ee/L	4.b\	.
.	8ff#/	.	.
8GG/	8dd/J)	.	.
=55	=55	=55	=55
4DD/	8b/L	4g\	.
.	8ee/	.	.
8AA/	8cc#'/J	8g\	.
4DD/	4dd'/	4f#\	.
8AA/	8r	8r	.
*	*v	*v	*
=56	=56	=56
4DD/	8r	.
.	16r	.
.	16dd\LL	.
8AA/	16ff#\	.
.	16f#\JJ	.
4DD/	4a/	.
8BB/	8g/	.
=57	=57	=57
4DD/	8r	.
.	16r	.
.	16ddd#\LL	.
8C#/	16eee\	.
.	16ee\JJ	.
4DD/	4gg\	.
8D/)	8ff#\	.
=58	=58	=58
*	*^	*
(4DD/	(8aa/L	4.a\	.
.	8gg/	.	.
8FF#/	8ff#/J	.	.
4DD/	8ee/L	4.b\	.
.	8ff#/	.	.
8GG/	8dd/J)	.	.
=59	=59	=59	=59
4DD/	8b/L	4g\	.
.	8ee/	.	.
8AA/	8cc#'/J	8g\	.
4DD/	8dd/	8f#\	.
.	8r	8r	.
8D/)	[8dd/	8f#\	.
=60	=60	=60	=60
4DD/	(4dd/]	[4.g\	.
8E\	8cc#/	.	>
4DD/	8aa'/)	8g\]	.
.	8r	8r	.
8AA/	(8cc#/	8g\	.
=61	=61	=61	=61
4DD/	4ee/	[4.f#\	.
8D/	8dd/	.	.
4DD/	8aa'/)	8f#\]	.
.	8r	8r	.
8AA/	[8dd/	8f#\	.
=62	=62	=62	=62
(4DD/	(4dd/]	[4.g\	.
8E\	8cc#/	.	>
4DD/	8aa'/)	8g\]	.
.	8r	8r	.
8AA/	8cc#'/	8g\	.
=63	=63	=63	=63
4DD/	4dd'/	4f#\	.
8D/	8r	8r	.
4DD/	4r	4r	.
8AA/)	[8dd/	8f#\	.
=64	=64	=64	=64
(4DD/	(8.dd/L]	[4.g\	<
.	16cc#/L	.	.
8E\	16b#/	.	.
.	16cc#/JJ	.	.
4DD/	8aa'/)	8g\]	.
.	8r	8r	.
8AA/)	8cc#/	8g\	.
=65	=65	=65	=65
(4DD/	(8.ee/L	[4.f#\	<
.	16dd/L	.	.
8D\	16cc#/	.	>
.	16dd/JJ	.	.
4DD/	8aa'/)	8f#\]	.
.	8r	8r	.
8AA/)	[8dd/	8f#\	.
=66	=66	=66	=66
(4DD/	(8.dd/L]	[4.g\	<
.	16cc#/L	.	.
8E\	16b#/	.	>
.	16cc#/JJ	.	.
4DD/	8aa'/)	8g\]	.
.	8r	8r	.
8AA/)	8cc#/	8g\	.
=67	=67	=67	=67
4DD/	8dd'/	8f#\	.
.	8r	4r	.
8r	(8dd/	.	.
4r	4a/	4r	.
8r	8f#/)	8r	.
*	*v	*v	*
=68	=68	=68
8DD'\L	(4d/	p
8F#'\J	.	.
8r	8dd\	.
8EE'\L	4d/	.
8G'\J	.	.
8r	8cc#\)	.
=69	=69	=69
8FF#'\L	(4d'/	.
8A'\J	.	.
8r	8ccn\	.
8GG'\L	4d/	.
8B'\J	.	.
8r	8b\)	.
=70	=70	=70
8Cn'\L	(4e/	.
8cn'\J	.	.
8r	8a/	.
8C#'\L	4e/	.
8B-'\J	.	.
8r	8g/)	.
=71	=71	=71
8D'\L	(4f#/	.
8A'\J	.	.
8r	8a/)	.
4r	8d/L	.
.	8dd/	.
8r	8dd/J	.
=72	=72	=72
*	*^	*
8D'/	(4dd/	8r	.
8r	.	8f#\	.
8r	8ddd/	4r	.
8E'/	4dd/	.	.
8r	.	8g\	.
8r	8ccc#/)	8r	.
=73	=73	=73	=73
8F#'/	(4dd/	8r	.
8r	.	8a\	.
8r	8cccn/	4r	.
8G'/	4dd/	.	.
8r	.	8b\	.
8r	8bb/)	8r	.
=74	=74	=74	=74
8Cn'/	(4ee/	8r	.
8r	.	8ccn\	.
8r	8aa/	4r	.
8D'/	4cc/	.	.
8r	.	8a\	.
8r	8ff#/)	8r	.
*	*v	*v	*
=75	=75	=75
8G'/L	(4b/	<
8g/J	.	.
8r	8gg/	.
8G'/L	4ffn/	.
8b/J	.	.
8r	8ddd/)	.
=76	=76	=76
*	*^	*
8Cn'/	(4ee/	8r	>
8r	.	8ccn\	.
8r	8cccn/	4r	.
8D'/	4cc/	.	.
8r	.	8f#\	.
8r	8aa/)	8r	.
=77	=77	=77	=77
8G'/	(4b/	8r	<
8r	.	8g\	.
8r	8gg/	4r	.
8G'/	4ffn/	.	.
8r	.	8b\	.
8r	8ddd/)	8r	.
=78	=78	=78	=78
8Cn'/	(4ee/	8r	>
8r	.	8ccn\	.
8r	8cccn/	4r	.
8D'/	4cc/	.	.
8r	.	8f#\	.
8r	8aa/)	8r	.
*clefG2	*	*	*
=79	=79	=79	=79
(8g\L	([4.gg/	8b\L	pp
8a\	.	8ccn\	.
8b\J)	.	8dd\J	.
[4.ccn\	8gg/L]	[4.ee\	.
.	8ff#/	.	.
.	8gg#/J)	.	.
=80	=80	=80	=80
(8cc\L]	([4.aa/	8ee\L]	.
8b\	.	8dd\	.
8cc#\J)	.	8ee\J	.
[4.dd\	8aa/L]	[4.ff#\	.
.	8gg#/	.	.
.	8aa#/J)	.	.
=81	=81	=81	=81
(8dd\L]	([4.bb/	8ff#\L]	.
8cc#\	.	8ee\	.
8dd#\J)	.	8ff#\J	.
(4ee\	8bb/L]	4ggn\	.
.	8cccn/	.	.
8ddn\	8bb/J)	8ff#\	.
=82	=82	=82	=82
4ccn\	8bb/L	4ee\	.
.	8aa/	.	.
8b\	[8gg#/J	8dd\	.
4cc\	8gg#/L]	4ee\	.
.	8aa/	.	.
8cc#\)	8ggn/J	8ee\	.
=83	=83	=83	=83
(8d/L	(8ff#/L	[4.dd\	.
8e/	8gg/	.	.
8f#/J)	8aa/J)	.	.
[4.g/	[4.bb/	8dd\L]	.
.	.	8cc#\	.
.	.	8dd#\J	.
=84	=84	=84	=84
(8g/L]	(8bb/L]	[4.ee\	.
8f#/	8aa/	.	.
8g#/J)	8bb/J	.	.
[4.a/	[4.ccc#/)	8ee\L]	.
.	.	8dd#\	.
.	.	8ee#\J	.
=85	=85	=85	=85
8a/L]	(8ccc#/L]	[4.ff#\	.
8g#/	8bb/	.	.
8a#/J	8ccc#/J	.	.
4b/	4ddd/)	(8ff#\]	.
.	.	4ffn\	.
8an/	[8ddd/	.	.
=86	=86	=86	=86
8g#/L	8ddd/]	4ee\	.
8a/	[4cccn/	.	.
8gn/J	.	8ee-\)	.
8f#/L	(8ccc/L]	8dd\L	.
8d/	8ddd/	8ff#\	.
8ccn/J	8aa/J)	8ff#\J	.
*clefF4	*	*	*
=87	=87	=87	=87
[4.G\	8gg/ 8bb/	(8b\L	.
.	8r	8fn\	.
.	8r	8d#\J)	.
8G\L]	8r	[4.e\	.
8F#\	(8ddn/L	.	.
8G#\J	8b/J	.	.
=88	=88	=88	=88
[4.A\	[4.ccn/)	8e\L]	.
.	.	8g\	.
.	.	8e#\J	.
8A\L]	8cc/L]	[4.f#\	.
8G#\	(8een/	.	.
8A#\J	8cc#/J	.	.
=89	=89	=89	=89
([4.B\	[4.dd/)	8f#\L]	.
.	.	8a\	.
.	.	8f#\J	.
8B\L]	(8dd/L]	[4.g\	.
8An\	8ffn/	.	.
8B\J)	8dd#/J)	.	.
=90	=90	=90	=90
(8cn\L	(8ee/L	8g\L]	.
8B\	8ccn/	8a\	.
8c\J	8b/J	8g\J	.
8d\L	8a/L	8f#\L	.
8e\	8ddn/	8g\	.
8f#\J)	8cc/J)	8a\J	.
*	*v	*v	*
=91	=91	=91
*^	*	*
8G/ (8B-/L	2.G\	[4.g/ [4.b-/ [4.gg/	<
8A/ 8cn/	.	.	.
8B-/ 8d/J	.	.	.
[4.c/ [4.e-/)	.	(8g/] 8b-/] 8gg/L]	.
.	.	8f#/ 8a/ 8ff#/	.
.	.	8g/) 8b-/ 8gg/J	.
=92	=92	=92	=92
8c/] (8e-/L]	2.G\	[4.a/ [4.ccn/ [4.aa/	.
8Bn/ 8d/	.	.	.
8cn/ 8e-/J	.	.	.
[4.d/ [4.fn/)	.	(8a/] 8cc/] 8aa/L]	.
.	.	8g/ 8bn/ 8gg/	.
.	.	8a/) 8cc/ 8aa/J	.
=93	=93	=93	=93
8d/] (8f/L]	2.G\	[4.b/ [4.dd/ [4.bb/	.
8cn/ 8e-/	.	.	.
8d/ 8fn/J)	.	.	.
4e-/ 4g/	.	8b/] 8dd/] 8bb/L]	.
.	.	8ccn/ 8ee-/ 8cccn/	.
8d/ 8g/	.	8b-/ 8dd/ [8bb-/J	.
=94	=94	=94	=94
*	*	*^	*
4c#/ (4e/	[4.A\	(8bb-/L]	4a\ 4cc#\	.
.	.	8aa/	.	.
8d/ 8fn/	.	[8gg#/J	8bn\ 8dd\	.
4c#/ 4e/)	4A\]	(8gg#/L])	4a\ 4cc#\	.
.	.	8aa/	.	.
8r	8AAA/ 8AA/	8ggn/J)	8cc#\ 8ee\	.
*v	*v	*	*	*
=95	=95	=95	=95
[4.DD/ [4.D/	8dd'/ 8ffn'/	8a\	ff
.	4r	(8Fn/L	.
.	.	8A/J)	.
8DD/] 8D/L]	4.r	8d/	.
8CC#/ 8C#/	.	(8ff\L	.
8DD/ 8D/J	.	8dd\J	.
*	*v	*v	*
=96	=96	=96
[4.EE/ [4.E/	8cc#'\)	.
.	(8c#/L	.
.	8e/J	.
8EE/] 8E/L]	8g'/)	.
8DD#/ 8D#/	(8gg\L	.
8EE/ 8E/J	8ee\J	.
=97	=97	=97
[4.FFn/ [4.Fn/	8dd'\)	.
.	(8d/L	.
.	8fn/J	.
8FF/] 8F/L]	8a'/)	.
8EE/ 8E/	(8aa\L	.
8FF/ 8F/J	8ffn\J	.
=98	=98	=98
[4.GG/ [4.G/	8ee-'\)	.
.	(8e-/L	.
.	8g/J	.
8GG/] 8G/L]	8b-'\)	.
8FF#/ 8F#/	(8bb-\L	.
8GG/ 8G/J	8gg\J	.
=99	=99	=99
[4.AA/ [4.A/	8ff#'\)	.
.	(8f#/L	.
.	8a/J	.
8AA/] 8A/L]	8ccn'\)	.
8GG#/ 8G#/	(8cccn\L	.
8AA/ 8A/J	8aa\J)	.
=100	=100	=100
(8BB-/ 8B-/L	(8gg\L	.
8AA/ 8A/	8ddd\	.
(8BB-/) 8B-/J	8gg\J)	.
8BBn/ 8Bn/L	(8gg#\L	.
8AA#/ 8A#/	8ddd\	.
8BB/) 8B/J	8gg#\J)	.
=101	=101	=101
*^	*	*
[2.AA/ [2.An/	4.AAn\	16cc#\LL	.
.	.	16ee\	.
.	.	16aa\	.
.	.	16ccc#\JJ	.
.	.	16a\LL	.
.	.	16aa\JJ	.
.	8BB\L	16b\LL	.
.	.	16bb\	.
.	8C#\	16cc#\	.
.	.	16ccc#\	.
.	8D\J	16dd\	.
.	.	16ddd\JJ	.
=102	=102	=102	=102
2.AA/] 2.A/]	8E\L	16ee\LL	.
.	.	16eee\	.
.	8D\	16dd\	.
.	.	16ddd\	.
.	8C#\J	16cc#\	.
.	.	16ccc#\JJ	.
.	8Fn\L	16ffn\LL	.
.	.	16fffn\	.
.	8E\	16ee\	.
.	.	16eee\	.
.	8D\J	16dd\	.
.	.	16ddd\JJ	.
=103	=103	=103	=103
[2.AA/ [2.A/	4.AA\	16ee\LL	.
.	.	16aa\	.
.	.	16ccc#\	.
.	.	16eee\	.
.	.	16a\	.
.	.	16aa\JJ	.
.	8BB\L	16b\LL	.
.	.	16bb\	.
.	8C#\	16cc#\	.
.	.	16ccc#\	.
.	8D\J	16dd\	.
.	.	16ddd\JJ	.
=104	=104	=104	=104
2.AA/] 2.A/]	8E\L	16ee\LL	.
.	.	16eee\	.
.	8D\	16dd\	.
.	.	16ddd\	.
.	8C#\J	16cc#\	.
.	.	16ccc#\JJ	.
.	8Fn\L	16ffn\LL	.
.	.	16fffn\	.
.	8E\	16ee\	.
.	.	16eee\	.
.	8D\J	16dd\	.
.	.	16ddd\JJ	.
=105	=105	=105	=105
[2.AAA/ [2.AA/	4.AAA\	16ee\LL	.
.	.	16aa\	.
.	.	16ccc#\	.
.	.	16eee\JJ	.
.	.	16a\LL	.
.	.	16aa\JJ	.
.	8BBB\L	16b\LL	.
.	.	16bb\	.
.	8CC#\	16cc#\	.
.	.	16ccc#\	.
.	8DD\J	16dd\	.
.	.	16ddd\JJ	.
=106	=106	=106	=106
2.AAA/] 2.AA/]	8EE\L	16ee\LL	.
.	.	16eee\	.
.	8DD\	16dd\	.
.	.	16ddd\	.
.	8CC#\J	16cc#\	.
.	.	16ccc#\JJ	.
.	8FFn\L	16ffn\LL	.
.	.	16fffn\	.
.	8EE\	16ee\	.
.	.	16eee\	.
.	8DD\J	16dd\	.
.	.	16ddd\JJ	.
=107	=107	=107	=107
2.AAA/ 2.AA/	8EE\L	16ee\LL	ff
.	.	16eee\	.
.	8DD\	16dd\	.
.	.	16ddd\	.
.	8CC#\J	16cc#\	.
.	.	16ccc#\JJ	.
.	8FFn\L	16ffn\LL	.
.	.	16fffn\	.
.	8EE\	16ee\	.
.	.	16eee\	.
.	8DD\J	16dd\	.
.	.	16ddd\JJ	.
=108	=108	=108	=108
2.AAA/ 2.AA/	8EE\L	16ee\LL	.
.	.	16eee\	.
.	8DD\	16dd\	.
.	.	16ddd\	.
.	8CC#\J	16cc#\	.
.	.	16ccc#\JJ	.
.	8FFn\L	16ffn\LL	.
.	.	16fffn\	.
.	8EE\	16ee\	.
.	.	16eee\	.
.	8DD\J	16dd\	.
.	.	16ddd\JJ	.
*v	*v	*	*
=109	=109	=109
[2.AAA/ [2.AA/	16ccc#\LL	ff
.	16eee\	.
.	16ddd\	.
.	16ccc#\	.
.	16bb\	.
.	16aa\JJ	.
.	16gg\LL	.
.	16ff#\	.
.	16ee\	.
.	16dd\	.
.	16cc#\	.
.	16b\JJ	.
=110	=110	=110
2.AAA/_ 2.AA/_	16a\LL	.
.	16ee\	.
.	16dd\	.
.	16cc#\	.
.	16b\	.
.	16a\JJ	.
.	16g#/LL	.
.	16f#/	.
.	16e/	.
.	16d/	.
.	16c#/	.
.	16B/JJ	.
=111	=111	=111
*^	*	*
4.r	2.AAA/] 2.AA/]	16A/LL	.
.	.	16e/	.
.	.	16d/	.
.	.	16c#/	.
.	.	16B/	.
.	.	16A/JJ	.
16G#/LL	.	4.r	.
16F#/	.	.	.
16E/	.	.	.
16D/	.	.	.
16C#/	.	.	.
16BB/JJ	.	.	.
*v	*v	*	*
=112	=112	=112
16AA/LL	8r	.
16E/	.	.
16D/	8c#'/L	.
16C#/	.	.
16BB/	8e'/J	.
16AA/JJ	.	.
16GG#/LL	8A'/ 8a'/L	.
16FF#/	.	.
16EE/	8c#'/ 8cc#'/	.
16DD/	.	.
16CC#/	8e'/ 8ee'/J	.
16BBB/JJ	.	.
=113	=113	=113
[4.AAA/	[4.a\ [4.aa\	ff
4AAA;/]	4a;\] 4aa;\]	.
(8AA/	8r	p
=114	=114	=114
4DD/	2.r	.
8AA/	.	.
4DD/	.	.
8BB/	.	.
=115	=115	=115
4DD/	4r	.
8C#/	8r	.
4DD/	4r	.
8D/)	[8aa/	p
=116	=116	=116
*	*^	*
(4DD/	8aa/L]	4.a\	.
.	8gg/	.	.
8FF#/	8ff#/J	.	.
4DD/	8ee/L	4.b\	.
.	8ff#/	.	.
8GG/	8dd/J	.	.
=117	=117	=117	=117
4DD/	8b/L	4g\	.
.	8ee/	.	.
8AA/	8cc#'/J	8g\	.
4DD/	4dd'/	4f#\	.
8AA/)	8r	8r	.
*	*v	*v	*
=118	=118	=118
(4DD/	16r	.
.	(16dd\LL	.
.	16ff#\	.
.	16dd\	.
8AA/	16a\	.
.	16f#\JJ	.
4DD/	(4a/)	.
8BB/	8g/)	.
=119	=119	=119
4DD/	16r	.
.	16ddd#\LL	.
.	16eee\	.
.	16ccc#\	.
8C#/	16gg\	.
.	16ee\JJ	.
4DD/	4gg\	.
8D/)	8ff#\	.
=120	=120	=120
*	*^	*
(4DD/	(8aa/L	4.a\	.
.	8gg/	.	.
8FF#/	8ff#/J	.	.
4DD/	8ee/L	4.b\	.
.	8ff#/	.	.
8GG/	8dd/J)	.	.
=121	=121	=121	=121
4DD/	8b/L	4g\	.
.	8ee/	.	.
8AA/	8cc#'/J	8g\	.
4DD/	8dd'/	8f#\	.
.	8r	8r	.
8D/)	[8dd/	8f#\	.
=122	=122	=122	=122
(4DD/	(4dd/]	[4.g\	.
8E\	8cc#/	.	>
4DD/	8aa'/)	8g\]	.
.	8r	8r	.
8AA/	8cc#/	8g\	.
=123	=123	=123	=123
4DD/	4ee/	[4.f#\	.
8D\	8dd/	.	>
4DD/	8aa/	8f#\]	.
.	8r	8r	.
8AA/)	[8dd/	8f#\	.
=124	=124	=124	=124
(4DD/	(4dd/]	[4.g\	.
8E\	8cc#/	.	>
4DD/	8aa/)	8g\]	.
.	8r	8r	.
8AA/	8cc#/	8g\	.
=125	=125	=125	=125
4DD/	4dd/	4f#\	.
8D\	8r	8r	.
4DD/	4r	4r	.
8AA/)	[8dd/	8f#\	.
=126	=126	=126	=126
(4DD/	(8.dd/L]	[4.g\	<
.	16cc#/L	.	.
8E\	16b#/	.	>
.	16cc#/JJ	.	.
4DD/	8aa'/)	8g\]	.
.	8r	8r	.
8AA/	8cc#/	8g\	.
=127	=127	=127	=127
4DD/	8.ee/L	[4.f#\	<
.	16dd/L	.	.
8D/	16cc#/	.	>
.	16dd/JJ	.	.
4DD/	8aa'/	8f#\]	.
.	8r	8r	.
8AA/)	8dd/	8f#\	.
=128	=128	=128	=128
(4DD/	(8.dd/L	[4.g\	<
.	16cc#/L	.	.
8E\	16b#/	.	>
.	16cc#/JJ	.	.
4DD/	8aa'/)	8g\]	.
.	8r	8r	.
8AA/	8cc#/	8g\	.
=129	=129	=129	=129
4DD/	4dd/	4f#\	.
8D/	8r	8r	.
4AA/	4r	4.r	.
8FF#/)	16d/LL	.	.
.	16A/JJ	.	.
*	*v	*v	*
=130	=130	=130
(16DD\LL	8r	.
16FF#\	.	.
16AA\	(16F#/LL	.
16D\JJ)	16A/	.
8r	16d/	.
.	16f#/JJ)	.
(16C#\LL	8r	.
16E\	.	.
16A\	(16e/LL	.
16c#\JJ)	16a/	.
8r	16cc#/	.
.	16ee/JJ)	.
=131	=131	=131
(16BB\LL	8r	.
16D\	.	.
16F#\	(16d/LL	.
16B\JJ)	16f#/	.
8r	16b/	.
.	16dd/JJ)	.
16A\LL	8r	.
16c#\	.	.
16f#\	(16cc#\LL	.
16a\JJ	16ff#\	.
8r	16aa\	.
.	16ccc#\JJ)	.
=132	=132	=132
(16GG\LL	8r	.
16BB\	.	.
16D\	(16B/LL	.
16G\JJ)	16d/	.
8r	16g/	.
.	16b/JJ)	.
(16F#\LL	8r	.
16A\	.	.
16d\	(16a\LL	.
16f#\JJ)	16dd\	.
8r	16ff#\	.
.	16aa\JJ)	.
=133	=133	=133
8E'\ 8e'\L	16cc#'\ 16gg'\LL	.
.	16a\	.
8E'\ 8e'\	16cc#'\ 16gg'\	.
.	16a\	.
8D'\ 8d'\J	16dd'\ 16ff#'\	.
.	16a\JJ	.
4AA'\ 4A'\	16cc#\ (16ee\LL	.
.	16dd\	.
.	16cc#\	.
.	16b\	.
8r	16a\	.
.	16g\JJ)	.
=134	=134	=134
(16DD\LL	8r	.
16FF#\	.	.
16AA\	(16F#/LL	.
16D\JJ)	16A/	.
8r	16d/	.
.	16f#/JJ)	<
(16C#\LL	8r	.
16E\	.	.
16A#\	(16e/LL	.
16c#\JJ)	16a#/	.
8r	16cc#/	.
.	16ee/JJ)	.
=135	=135	=135
*	*^	*
(16BB\LL	8r	4.r	.
16D\	.	.	.
16F#\	(16d/LL	.	.
16B\JJ)	16f#/	.	.
8r	16b/	.	.
.	16dd/JJ)	.	.
4.r	8r	(16A\LL	.
.	.	16cn\	.
.	16ccn/LL	16f#\	.
.	16ff#/	16a\JJ)	.
.	16aa/	8r	.
.	16cccn/JJ	.	.
*	*v	*v	*
=136	=136	=136
(16GG\LL	8r	.
16BB\	.	.
16D\)	(16B/LL	.
16G\JJ	16d/	.
8r	16g/	.
.	16b/JJ)	.
(16F#\LL	8r	.
16A\	.	.
16d#\	(16dd#\LL	.
16f#\JJ)	16aa\	.
8r	16bb\	.
.	16ddd#\JJ)	.
=137	=137	=137
(16GG\LL	8r	.
16BB\	.	.
16E\	(16e/LL	.
16G\JJ)	16g/	.
8r	16b/	.
.	16ee/JJ)	.
(16G#\LL	8r	.
16B\	.	.
16e\	(16ddn\LL	.
16g#\JJ)	16ee\	.
8r	16bb\	.
.	16dddn\JJ)	f
=138	=138	=138
(16AA\LL	8r	.
16C#\	.	.
16E\	(16c#/LL	.
16A\JJ)	16e/	.
8r	16a/	.
.	16cc#/JJ)	.
(16A\LL	8r	.
16c#\	.	.
16e\	(16cc#\LL	.
16a\JJ)	16ee\	.
8r	16gg\	.
.	16ccc#\JJ)	.
=139	=139	=139
(16AA\LL	8r	.
16D\	.	.
16F#\	(16d/LL	.
16A\JJ)	16f#/	.
8r	16a/	.
.	16dd/JJ)	.
(16A\LL	8r	.
16d\	.	.
16fn\	(16dd\LL	.
16a\JJ)	16gg#\	.
8r	16bb\	.
.	16ddd\JJ)	.
=140	=140	=140
*^	*	*
8r	(16AAA\LL	4.r	.
.	16CC#\	.	.
16C#/LL	16EE\	.	.
16E/	16AA\JJ)	.	.
16A/	8r	.	.
16c#/JJ	.	.	.
4.r	(16AA\LL	8r	.
.	16C#\	.	.
.	16E\	(16c#/LL	.
.	16A\JJ)	16e/	.
.	8r	16gn/	.
.	.	16cc#/JJ)	.
=141	=141	=141	=141
8r	(16AAA\LL	4.r	.
.	16DD\	.	.
16D/LL	16FF#\	.	.
16F#/	16AA\JJ)	.	.
16A/	8r	.	.
16d/JJ	.	.	.
4.r	16AA\LL	8r	.
.	(16D\	.	.
.	16Fn\	(16d/LL	.
.	16A\JJ)	16g#/	.
.	8r	16b/	.
.	.	16dd/JJ)	.
*v	*v	*	*
=142	=142	=142
(16AAA/LL	8r	.
16CC#/	.	.
16EE/	(16c#/LL	.
16AA/JJ)	16e/	.
8r	16a/	.
.	16cc#/JJ)	.
(16AAA/LL	8r	.
16CC#/	.	.
16EE/	(16A/LL	.
16AA/JJ)	16c#/	.
8r	16e/	.
.	16a/JJ)	.
=143	=143	=143
*^	*	*
4.r	(16AAA\LL	8r	.
.	16CC#\	.	.
.	16EE\	(16E/LL	.
.	16AA\JJ)	16A/	.
.	8r	16c#/	.
.	.	16e/JJ)	.
8r	(16AAA\LL	4.r	.
.	16CC#\	.	.
16C#/LL	16EE\	.	.
16E/	16AA\JJ)	.	.
16A/	8r	.	.
16c#/JJ	.	.	.
*v	*v	*	*
=144	=144	=144
[4.AAA/	4r	.
.	8r	.
4AAA/]	4r	.
8r	(8ff#/	p
=145	=145	=145
*	*^	*
2.r	4dd/	4r	.
.	8aa/	8r	.
.	4ff#/)	4r	.
.	(8dd/	8f#\	.
=146	=146	=146	=146
4r	4a/	4d\	.
8r	8ff#/	8a\	.
4r	4dd/)	4f#\	.
8F#\	[8a/	(8d\	.
=147	=147	=147	=147
4D\	4.a/_	4f#\	.
8A\	.	8d\	.
4F#\	4a/]	4A\)	.
8D\	[8a/	(8d\ 8f#\	.
=148	=148	=148	=148
4A\	4.a/_	4c#\ 4e\	.
8AA/	.	8e\ 8g\	.
4D\	8f#/ 8a/]	8d\)	.
.	16r	8r	.
.	16ff#/LL	.	p
8r	16ee#/	8r	.
.	16ff#/JJ	.	.
=149	=149	=149	=149
2.r	8dd'/	4r	.
.	16r	.	.
.	(16aa\LL	.	.
.	16gg#\	8r	.
.	16aa\JJ)	.	.
.	8ff#'\	8r	.
.	8r	16r	.
.	.	(16f#\LL	p
.	8dd/	16e#\	.
.	.	16f#\JJ)	.
=150	=150	=150	=150
4r	8a'/	8d'\	.
.	8r	16r	.
.	.	(16a\LL	.
8r	8ff#/	16g#\	.
.	.	16a\JJ)	.
8r	8dd'/	8f#'\	.
16r	8r	8r	.
(16F#\LL	.	.	.
16E#\	8a'/	8d\	.
16F#\JJ)	.	.	.
=151	=151	=151	=151
8D'\	[4.a/	(4f#\	.
16r	.	.	.
(16A\LL	.	.	.
16G#\	.	8d\	.
16A\JJ)	.	.	.
8F#'\	4a/]	4A\)	.
8r	.	.	.
8D\	[8a/	8d\ 8f#\	.
=152	=152	=152	=152
4A\	4.a/_	4c#\ 4e\	.
8AA/	.	8e\ 8g\	.
4D'\	4a'/]	4d\ 4f#\	.
8FF#/	8dd/	(8f#\ 8a\	.
=153	=153	=153	=153
4AA/	4a/ 4cc#/	4e\	.
8AAA/	8a/ 8ee/	8g\	.
4DD/	4dd'/	4f#\) 4a\	.
8F#\	[8a/	8d\ 8f#\	.
=154	=154	=154	=154
4A\	4.a/_	4c#\ 4e\	.
8AA/	.	8e\ 8g\	.
4D'\	4a/]	4d\ 4f#\	.
8FF#/	(8dd/	8f#\ 8a\	.
=155	=155	=155	=155
4AA/	4a/ 4cc#/	4e\	.
8AAA/	8a/ 8ee/	8g\	.
4DD'/	4a'/ 4dd'/)	4f#\	.
8DD/	8dd/ (8ff#/	8a\	.
=156	=156	=156	=156
4AA/	4cc#/ 4ee/	4a\	.
8AAA/	8ee/ 8gg/)	8a\	.
4DD'/	4dd'/ 4ff#'/	4a\	.
8DD/	8aa/ (8ddd/	8ff#\	.
=157	=157	=157	=157
4AA/	4aa/ 4ccc#/	4ee\	.
8AAA/	8aa/ 8eee/	8gg\	.
4DD'/	4aa'/ 4ddd'/)	4ff#\	.
8BBB/ 8BB/	8aa/ 8ddd#/	8ff#\	.
=158	=158	=158	=158
2.GGG/ 2.GG/	2.eee/	2.gg\ 2.bb\	f
=159	=159	=159	=159
2.AAA/ 2.AA/	2.ccc#/	2.gg\	.
*	*v	*v	*
=160	=160	=160
*^	*	*
[2.D/	4.DD\ 4.D\	16dd\LL	.
.	.	16ff#\	.
.	.	16aa\	.
.	.	16ddd\JJ	.
.	.	16dd\LL	.
.	.	16ddd\JJ	.
.	8C#\L	16cc#\LL	.
.	.	16ccc#\	.
.	8BB\	16b\	.
.	.	16bb\	.
.	8AA\J	16a\	.
.	.	16aa\JJ	.
=161	=161	=161	=161
2.D/]	8BB\L	16b\LL	.
.	.	16bb\	.
.	8AA\	16a\	.
.	.	16aa\	.
.	8GG\J	16g\	.
.	.	16gg\JJ	.
.	8FF#\L	16f#\LL	.
.	.	16ff#\	.
.	8GG\	16g\	.
.	.	16gg\	.
.	8AA\J	16a\	.
.	.	16aa\JJ	.
=162	=162	=162	=162
[2.D/	4.DD\ 4.D\	16dd\LL	.
.	.	16ff#\	.
.	.	16aa\	.
.	.	16ddd\JJ	.
.	.	16dd\LL	.
.	.	16ddd\JJ	.
.	8C#\L	16cc#\LL	.
.	.	16ccc#\	.
.	8BB\	16b\	.
.	.	16bb\	.
.	8AA\J	16a\	.
.	.	16aa\JJ	.
=163	=163	=163	=163
2.D/]	8BB\L	16b\LL	.
.	.	16bb\	.
.	8AA\	16a\	.
.	.	16aa\	.
.	8GG\J	16g\	.
.	.	16gg\JJ	.
.	8FF#\L	16f#\LL	.
.	.	16ff#\	.
.	8GG\	16g\	.
.	.	16gg\	.
.	8AA\J	16a\	.
.	.	16aa\JJ	.
=164	=164	=164	=164
[2.D/	4.DD\ 4.D\	16dd\LL	.
.	.	16ff#\	.
.	.	16aa\	.
.	.	16ddd\	.
.	.	16dd\	.
.	.	16ddd\JJ	.
.	8Cn\L	16ccn\LL	.
.	.	16cccn\	.
.	8BB\	16b\	.
.	.	16bb\	.
.	8AA\J	16a\	.
.	.	16aa\JJ	.
=165	=165	=165	=165
4.D/_	8GG\L	16g\LL	.
.	.	16gg\	.
.	8FF#\	16f#\	.
.	.	16ff#\	.
.	8EE\J	16e\	.
.	.	16ee\JJ	.
8D/L]	8DD\L	16d/LL	.
.	.	16dd/	.
8Cn/	8CCn\	16cn/	.
.	.	16ccn/	.
8BB/J	8BBB\J	16B/	.
.	.	16b/JJ	.
*v	*v	*	*
=166	=166	=166
4CCn/ 4Cn/	4cn/ 4ccn/	f
8r	8r	.
4r	4r	.
8r	8r	.
=167	=167	=167
4CC#/ 4C#/	4c#/ 4cc#/	f
8r	8r	.
4r	4r	.
8r	8r	.
=168	=168	=168
4r	2.r	pp
8r	.	.
4r	.	.
(8D/	.	.
=169	=169	=169
*	*^	*
4GG/	8r	8r	.
.	4dd'/	4b\	pp
8D\	.	.	.
4GG/	8r	8r	.
.	4ccn'/	4b\	.
8E\)	.	.	.
=170	=170	=170	=170
(4GG/	8r	8r	.
.	4ccn'/	4a\	.
8F#\	.	.	.
4GG/	8r	8r	.
.	4b'/	4g\	.
8G\)	.	.	.
*	*v	*v	*
=171	=171	=171
(4GG/	8r	.
.	4gg'\ 4bb'\	.
8BB/	.	.
4GG/	8r	.
.	4gg'\ 4aa'\	.
8Cn/	.	.
=172	=172	=172
4GG/	8r	.
.	4ff#'\ 4aa'\	.
8D\	.	.
4GG/	8r	.
.	4gg'\	.
8G\)	.	.
=173	=173	=173
*	*^	*
4GG/	8r	8r	.
.	4dd'/	4b\	.
(8D\	.	.	.
4GG/	8r	8r	.
.	4ccn'/	4b\	.
8E\	.	.	.
=174	=174	=174	=174
4GG/	8r	8r	.
.	4ccn'/	4a\	.
8F#\	.	.	.
4GG/	8r	8r	.
.	4b'/	4g\	.
8G\)	.	.	.
*	*v	*v	*
=175	=175	=175
(4GG#/	8r	.
.	4d/ 4fn/ 4b/	<
8G#\	.	.
4AA/	8r	.
.	4d'/ 4f'/ 4a'/	.
8A\	.	.
=176	=176	=176
4BB-/	8r	.
.	4d'/ 4fn'/ 4g#'/	.
8B-\	.	.
4BBn/	8r	.
.	4d/ 4g#/	.
8Bn\	.	.
=177	=177	=177
4AA/	4c#/ 4a/	p
(8A\)	8c#/ 8a/	.
4AA/	4d/ 4f#/	<
8A\	8d#/ 8b/	.
=178	=178	=178
4AA/	4e/ 4g/	.
8A\	8e#/ 8cc#/	.
4AA/	4f#/ 4a/	.
8A\	8f#/ 8dd/	.
=179	=179	=179
4AA/	4g/ 4b/	.
8A\	8g#\ 8ee\	.
4AA/	4a\ 4cc#\	.
8A\	8a#\ 8ff#\	.
=180	=180	=180
4AA/	4b\ 4dd\	.
8A\	8b\ 8gg\	.
4AA/	4ccn\ 4ee\	.
8A\	8cc#\ 8aa\	.
=181	=181	=181
4AA/	4dd\ 4ff#\	.
8A\	8b\ 8gg\	.
4AA/	4ccn\ 4ee\	.
8A\	8cc#\ 8aa\	.
=182	=182	=182
4AA/	4dd\ 4ff#\	.
8A\	8b\ 8gg\	.
4AA/	4ccn\ 4ee\	.
8A\)	8cc#\ 8aa\	.
=183	=183	=183
8AA\L	8dd\ (8ff#\L	f
8A\	8b\ 8gg\)	.
8AA\J	8cc#\ (8ee\J	.
8A\L	8a\ 8ff#\L)	.
8AA\	8b\ (8dd\	.
8A\J	8g\ 8ee\J)	.
=184	=184	=184
8AAA/L	(8a/ 8cc#/L	.
8AA/	8f#/) 8dd/	.
8AAA/J	(8g/ 8b/J	.
8AA/L	8e/) 8cc#/L	.
8AAA/	(8f#/ 8a/	.
8AA/J	8d/) 8b/J	.
=185	=185	=185
8AAA/L	(8e/ 8g/L	.
8AA/	8c#/) 8a/	.
8AAA/J	(8d/ 8f#/J	.
8AA/L	8B/) 8g/L	.
8AAA/	(8c#/ 8e/	.
8AA/J	8A/) 8f#/J	.
=186	=186	=186
8AAA/L	(8B/ 8d/L	.
8AA/	8G/) 8e/	.
8AAA/J	(8A/ 8c#/J	.
8AA/L	8F#/) 8d/L	.
8AAA/	(8G/ 8B/	.
8AA/J	8E/) 8c#/J	ff
=187	=187	=187
*^	*	*
8r	(16AAA\LL	4.r	.
.	16CC#\	.	.
16r	16EE\	.	.
16AA/LL	16GG\JJ)	.	.
16C#/	8r	.	.
16E/JJ	.	.	.
8G'/	(16AA\LL	8r	.
.	16C#\	.	.
4r	16E\	16r	.
.	16G\JJ)	(16A/LL	.
.	8r	16c#/	.
.	.	16e/JJ)	.
*v	*v	*	*
=188	=188	=188
2.r	8g'/	.
.	8r	.
.	8r	.
.	4r	.
.	8r	.
=189	=189	=189
(16AA\LL	8r	p
16C#\	.	.
16E\	16r	.
16G\JJ)	(16A/LL	.
8r	16c#/	.
.	16e/JJ)	.
(16A\LL	8g'/	.
16c#\	.	.
16e\	16r	.
16g\JJ)	(16a\LL	.
8r	16cc#\	.
.	16ee\JJ)	.
=190	=190	=190
2.r	8gg\	.
.	8r	.
.	8r	.
.	4r	.
.	8r	.
=191	=191	=191
(16A\LL	8r	.
16c#\	.	.
16e\	16r	.
16g\JJ)	(16a\LL	>
8r	16cc#\	.
.	16ee\JJ)	.
4r	8gg'\	.
.	8r	.
8r	8r	.
=192	=192	=192
(16A\LL	8r	.
16c#\	.	.
16e\	16r	.
16g\JJ)	(16a\LL	pp
8r	16cc#\	.
.	16ee\JJ)	.
4r	4gg;\	.
8AA'\ 8A'\	(16gg\LL	p
.	16ff#\JJ)	.
=193	=193	=193
4DD'/ 4D'/	16ee#\LL	<
.	16ff#\	.
.	16gg\	.
.	16ff#\	.
8AA'\ 8A'\	16ddd\	.
.	16ff#\JJ	.
4DD'/ 4D'/	16aa\LL	.
.	16gg\	.
.	16ff#\	.
.	16gg\	.
8BB'\ 8B'\	16ddd\	.
.	16gg\JJ	.
=194	=194	=194
4DD'/ 4D'/	16aa\LL	.
.	16gg\	.
.	16ff#\	.
.	16gg\	.
8C#'\ 8c#'\	16eee\	.
.	16gg\JJ	.
4DD'/ 4D'/	16gg\LL	.
.	16ff#\	.
.	16ee#\	.
.	16ff#\	.
8D'\ 8d'\	16ddd\	.
.	16ff#\JJ	.
=195	=195	=195
4DD'/ 4D'/	16een\LL	.
.	16dd\	.
.	16cc#\	.
.	16dd\	.
8FF#'/ 8F#'/	16ddd\	.
.	16dd\JJ	.
4DD'/ 4D'/	16cc#\LL	.
.	16b\	.
.	16a#\	.
.	16b\	.
8GG'/ 8G'/	16bb\	.
.	16b\JJ	.
=196	=196	=196
4DD'/ 4D'/	16an\LL	.
.	16g\	.
.	16f#\	.
.	16g\	.
8AA'\ 8A'\	16gg\	.
.	16g\JJ	.
4DD'/ 4D'/	16f#\LL	.
.	16a\	.
.	16dd\	.
.	16ff#\	.
8D'\ 8d'\	16aa\	.
.	16gg\JJ	.
=197	=197	=197
4DD'/ 4D'/	16gg\LL	.
.	16ff#\	.
.	16ee#\	.
.	16ff#\	.
8AA'\ 8A'\	16ddd\	.
.	16ff#\JJ	.
4DD'/ 4D'/	16aa\LL	.
.	16gg\	.
.	16ff#\	.
.	16gg\	.
8BB'\ 8B'\	16ddd\	.
.	16gg\JJ	.
=198	=198	=198
4DD'/ 4D'/	16aa\LL	.
.	16gg\	.
.	16ff#\	.
.	16gg\	.
8C#'\ 8c#'\	16eee\	.
.	16gg\JJ	.
4DD'/ 4D'/	16gg\LL	.
.	16ff#\	.
.	16ee#\	.
.	16ff#\	.
8D'\ 8d'\	16ddd\	.
.	16ff#\JJ	.
=199	=199	=199
4DD/ 4D/	16een\LL	f
.	16dd\	.
.	16cc#\	.
.	16dd\	.
8FF#/ 8F#/	16ddd\	.
.	16dd\JJ	.
4DD/ 4D/	16cc#\LL	.
.	16b\	.
.	16a#\	.
.	16b\	.
8GG/ 8G/	16bb\	.
.	16b\JJ	.
=200	=200	=200
4DD/ 4D/	16an\LL	.
.	16g\	.
.	16f#\	.
.	16g\	.
8AA\ 8A\	16gg\	.
.	16g\JJ	.
4DD/ 4D/	16f#\LL	.
.	16a\	.
.	16dd\	.
.	16ff#\	.
8D\ 8d\	16aa\	.
.	16ff#\JJ	.
=201	=201	=201
4DD/ 4D/	16ee\LL	.
.	16dd\	.
.	16cc#\	.
.	16dd\	.
8FF#/ 8F#/	16ddd\	.
.	16dd\JJ	.
4DD/ 4D/	16cc#\LL	.
.	16b\	.
.	16a#\	.
.	16b\	.
8GG/ 8G/	16bb\	.
.	16b\JJ	.
=202	=202	=202
4DD/ 4D/	16an\LL	.
.	16g\	.
.	16f#\	.
.	16g\	.
8AA/ 8A/	16gg\	.
.	16g\JJ	.
4DD/ 4D/	16f#\LL	.
.	16a\	.
.	16dd\	.
.	16ff#\	.
8D\ 8d\	16aa\	.
.	16ff#\JJ	.
=203	=203	=203
4DD/ 4D/	16ee\LL	.
.	16dd\	.
.	16cc#\	.
.	16dd\	.
8FF#/ 8F#/	16ddd\	.
.	16dd\JJ	.
4DD/ 4D/	16cc#\LL	.
.	16b\	.
.	16a#\	.
.	16b\	.
8GG/ 8G/	16bb\	.
.	16b\JJ	.
=204	=204	=204
4DD/ 4D/	16an\LL	.
.	16g\	.
.	16f#\	.
.	16g\	.
8AA\ 8A\	16gg\	.
.	16g\JJ	.
4DD/ 4D/	16f#\LL	.
.	16a\	.
.	16dd\	.
.	16ff#\	.
8D\ 8d\	16aa\	.
.	16f#\JJ	.
=205	=205	=205
4DD/ 4D/	16a\LL	.
.	16g\	.
.	16f#\	.
.	16g\	.
8AA\ 8A\	16gg\	.
.	16g\JJ	.
4DD/ 4D/	16f#\LL	.
.	16a\	.
.	16dd\	.
.	16ff#\	.
8D\ 8d\	16aa\	.
.	16f#\JJ	.
=206	=206	=206
4DD/ 4D/	16a\LL	.
.	16g\	.
.	16cc#\	.
.	16g\	.
8AA\ 8A\	16ee\	.
.	16cc#\JJ	.
4DD/ 4D/	16gg\LL	.
.	16ee\	.
.	16ccc#\	.
.	16gg\	.
8AA\ 8A\	16eee\	.
.	16ccc#\JJ	.
=207	=207	=207
4DD/ 4D/	16ddd\LL	ff
.	16aa\	.
.	16ff#\	.
.	16ddd\	.
8r	16aa\	.
.	16ff#\JJ	.
*clefG2	*	*
16d/LL	16dd\LL	.
16a/	16aa\	.
16f#/	16ff#\	.
16d/	16dd\	.
16A/	16a\	.
16f#/JJ	16ff#\JJ	.
*clefF4	*	*
=208	=208	=208
16d\LL	16dd/LL	.
16A\	16a/	.
16F#\	16f#/	.
16d\	16dd/	.
16A\	16a/	.
16F#\JJ	16f#/JJ	.
16D\LL	16d/LL	.
16A\	16a/	.
16F#\	16f#/	.
16D\	16d/	.
16AA\	16A/	.
16FF#\JJ	16F#/JJ	.
=209	=209	=209
*^	*	*
4D/	4DD\	4.r	.
8r	8r	.	.
4A'\ 4e'\	4.r	4g'\ 4cc#'\ 4gg'\	ff
8r	.	8r	.
*v	*v	*	*
=210	=210	=210
4D'\ 4d'\	4f#'\ 4dd'\ 4ff#'\	.
8r	8r	.
4r	4r	.
==	==	==
*-	*-	*-
!!!ENC: Craig Stuart Sapp
!!!END: 2005/08/27/
